X:612
T: ALS ICH BEI MEINEN SCHAFEN WACHT
N: E1949
O: Europa, Mitteleuropa, Deutschland
R: geistlich, Fest - Lied, Weihnachten
M: 4/4
L: 1/8
K: G
 | _B2AG=F3F | G3A_B4
B2AG=F3F | G3A_B4
B2AG=F3F | G3A_B4
B2AG=F3F | G3A_B4 | z2
_B2A3A | G4A3A | G4
_B2c2 | d4_B2c2 | d4
d2c_B | A2G2A2F2 | G4
d2cB | A2G2A2F2 | G8

